!!!OTL: 63j. Schubert, Piano Sonata in A major, D959, mvt. 2, mm. 1-18
!!!OMD: Andantino
**kern	**kern	**dynam
*staff2	*staff1	*staff1
*clefF4	*clefG2	*clefG2
*k[f#c#g#]	*k[f#c#g#]	*k[f#c#g#]
*f#:	*f#:	*f#:
*M3/8	*M3/8	*M3/8
*MM80	*MM80	*MM80
=1-	=1-	=1-
8FF#'/	(4.a^/	p
(8c#\L	.	.
8C#\J)	.	.
=2	=2	=2
8EE#'/	4.g#^/)	.
(8c#\L	.	.
8C#\J)	.	.
=3	=3	=3
.	32bQ/	.
8FF#'/	(16a/LL	.
.	16g#/	.
(8c#\L	16.a/	.
.	32cc#/Jk	.
8C#\J)	8a/J	.
=4	=4	=4
8EE#'/	4.g#/)	.
(8c#\L	.	.
8C#\J)	.	.
=5	=5	=5
8AA'/	(4.cc#\	.
(8c#\L	.	.
8C#\J)	.	.
=6	=6	=6
*	*^	*
8BB'/	4.dd/)	8r	.
(8c#\L	.	4e#^\	.
8C#\J)	.	.	.
=7	=7	=7	=7
8AA'/L	(16dd/LL	8f#\L	.
.	16cc#/)	.	.
8GG#'/	(16cc#/	8e#\	.
.	16b/)	.	.
8FF#'/J	(16b/	8f#\J	.
.	16a/JJ)	.	.
=8	=8	=8	=8
8CC#'/	4.g#/	4.e#\	.
(8c#\L	.	.	.
8C#\J)	.	.	.
*	*v	*v	*
=9	=9	=9
8FF#'/	(4.a/	.
(8c#\L	.	.
8C#\J)	.	.
=10	=10	=10
8EE#/	4.g#/)	.
8c#\L	.	.
8C#\J	.	.
=11	=11	=11
.	32bQ/	.
8FF#/	(16a/LL	.
.	16g#/	.
8c#\L	16.a/	.
.	32cc#/Jk	.
8C#\J	8a/J	.
=12	=12	=12
8EE#/	4.g#/)	.
8c#\L	.	.
8C#\J	.	.
=13	=13	=13
8FF#/	4.f#/ 4.b/	.
8d\L	.	.
8D\J	.	.
=14	=14	=14
8FF#/	4.f#/ 4.a/	.
8c#\L	.	.
8C#\J	.	.
=15	=15	=15
.	16aQ/	.
*	*^	*
8CC#/	8g#'/L	8e#\L	.
8c#\L	(16.g#/L	8e#\	.
.	32a/Jk	.	.
8C#\J	8g#/J)	8c#\ 8e#\J	.
=16	=16	=16	=16
8FF#/	4.a/	4.c#\ 4.f#\	.
8A\L	.	.	.
8C#\J	.	.	.
=17	=17	=17	=17
.	16aQ/	.	.
8CC#/	8g#'/L	8e#\L	.
8c#\L	(16.g#/L	8e#\	.
.	32a/Jk	.	.
8C#\J	8g#/J)	8c#\ 8e#\J	.
=18	=18	=18	=18
8FF#/L	4.f#/	4.A\ 4.c#\	.
8C#/	.	.	.
8F#/J	.	.	.
*	*v	*v	*
=	=	=
*-	*-	*-
!!!hum2abc: -q
